flaticon/web-design/pyramid.svg

<svg xmlns="http://www.w3.org/2000/svg" width="32" height="32" viewBox="0 0 24 24">
    <path d="M 23.960938 23.457031 L 12.335938 0.207031 C 12.273438 0.0820312 12.140625 0 12 0 C 11.859375 0 11.726562 0.0820312 11.664062 0.207031 L 0.0390625 23.457031 C -0.0195312 23.574219 -0.0117188 23.710938 0.0546875 23.820312 C 0.125 23.933594 0.246094 24 0.375 24 L 23.625 24 C 23.753906 24 23.875 23.933594 23.945312 23.820312 C 24.011719 23.710938 24.019531 23.574219 23.960938 23.457031 Z M 12 1.214844 L 17.203125 11.625 L 6.796875 11.625 Z M 0.984375 23.25 L 6.1875 12.839844 L 11.390625 23.25 Z M 12 22.785156 L 6.796875 12.375 L 17.203125 12.375 Z M 12.609375 23.25 L 17.8125 12.839844 L 23.015625 23.25 Z M 12.609375 23.25"/>
</svg>

<svg xmlns="http://www.w3.org/2000/svg" width="32" height="32" viewBox="0 0 24 24">
    <path d="M23.96 23.457L12.337.207A.38.38 0 0 0 12 0a.38.38 0 0 0-.336.207L.04 23.457A.375.375 0 0 0 .375 24h23.25a.377.377 0 0 0 .336-.543zM12 1.215l5.203 10.41H6.797zM.984 23.25l5.204-10.41 5.203 10.41zM12 22.785l-5.203-10.41h10.406zm.61.465l5.203-10.41 5.203 10.41zm0 0"/>
</svg>
